X:1
T: Scotch Mist
P:Kerr's 4th version
R:Strathspey
Q: 128
K:D
M:4/4
L:1/16
|:A3F Ad3 B3G Bd3|c3d e3c d4 f4|g3f gb3 af3 ed3|BB3 g3f ((3e2f2d2) ((3c2d2B2) |
A3F Ad3 B3G Bd3|c3d e3c d4 f4|g3f gb3 af3 ed3|Bg3 f3e d6 f2|
a3b af3 d3e fd3|g3a b3g e4 ((3e2f2g2) |a3b af3 d3e fd3|BB3 g3f e6 f2|
a3b af3 d3e fd3|g3a b3g e4 ((3e2f2g2) |a3b af3 d3e fd3|Bg3 f3e d6:|
